dist/svg/static/climate-electric-large.svg

<svg xmlns="http://www.w3.org/2000/svg" width="48" height="48" viewBox="0 0 48 48"><g fill="none" stroke="currentColor" stroke-miterlimit="10"><path d="M30 15.5h-3.5M30 12.51h-3.5M30 9.5h-3.5M26.5 22.5h-4M26.5 29.999V7.5a2 2 0 1 0-4 0v23.349c-2.32.83-4 3.046-4 5.651a6 6 0 0 0 12 0c0-2.608-1.675-4.828-4-5.654v-.847z"/></g></svg>

<?xml version="1.0" encoding="UTF-8" standalone="no"?>
<svg width="48px" height="48px" viewBox="0 0 48 48" version="1.1" xmlns="http://www.w3.org/2000/svg" xmlns:xlink="http://www.w3.org/1999/xlink">
    <!-- Generator: sketchtool 46.2 (44496) - http://www.bohemiancoding.com/sketch -->
    <title>climate-electric-large</title>
    <desc>Created with sketchtool.</desc>
    <defs></defs>
    <g id="icons-published" stroke="none" stroke-width="1" fill="none" fill-rule="evenodd">
        <g id="briefing" transform="translate(-3168.000000, -282.000000)"></g>
        <g id="climate-electric-large" stroke="#000000">
            <path d="M30,15.5 L26.5,15.5 L30,15.5 Z M30,12.5 L26.5,12.5 L30,12.5 Z M30,9.5 L26.5,9.5 L30,9.5 Z M26.5,22.5 L22.5,22.5 L26.5,22.5 Z M26.5,30 L26.5,7.5 C26.5,6.4 25.6,5.5 24.5,5.5 C23.4,5.5 22.5,6.4 22.5,7.5 L22.5,30.8 C20.2,31.6 18.5,33.8 18.5,36.5 C18.5,39.8 21.2,42.5 24.5,42.5 C27.8,42.5 30.5,39.8 30.5,36.5 C30.5,33.9 28.8,31.7 26.5,30.8 L26.5,30 Z" id="Shape"></path>
        </g>
    </g>
</svg>
